X:61
T:Reel 61
M:4/4
K:Ador
L:1/8
G> (3G>A, (3A,G,A, C>E (3A,A,A, | (3G,B,G, G>B, G,>B, (3B,G,D |B,>G (3GGG G>A (3GFG |D>G, (3G,G,G, B,>D (3DG,B, :||2E>A (3AGA c>A (3AGA |EDCB, CDEFG2| (3BcG dG GG (3GGG |D>G (3GGG B>A (3AGA | (3BAG AG AG (3GAG |D>B, (3G,G,G, B,DGF|E>G (3GGG A>c (3GAG |D>B, (3B,GG B,>A (3GFG |D>G, (3G,G,G, B,>D (3B,G,G, |D>G, (3GFG D>G, (3G,G,B, |
